X:1
T:Nae Bonnie Laddie tae Tak' Me Awa'
F:http://www.folkinfo.org/songs
B:Sam Henry's Songs of the People, Huntington & Herrmann, 1990.
S:Pat Hackett of Stone Row, Coleraine, 1928.
Z:H230. Text collated with two others.
L:1/8
M:6/8
K:Dmix
D|DEF GAG|FDD D2
w:My name it is Jean and my age is fif-teen,
D|DEF GAB|dcB A2
w:My fa-ther's a far-mer, he leeves near the Green,
B/c/|ded cBA|GFE c2
w:He has mo-ney in plen-ty, that mak's me sae braw,
D/D/|DEF GAG|FDD D3|]
w:And there's no bon-nie lad-die tae tak' me a-wa'.